Origami/64x64/apps/plasma-media-center.svg

<svg width="64" height="64" version="1" xmlns="http://www.w3.org/2000/svg">
 <path d="m60 54.222v-44.444c0-1.5392-1.248001-2.778-2.8-2.778h-50.4c-1.5512 0-2.8 1.2388-2.8 2.7778v44.444c0 1.54 1.2488 2.778 2.8 2.778h50.4c1.551199 0 2.8-1.23888 2.8-2.7778z" style="fill:#316fb5"/>
 <path d="m25.273696 22.000245a1.2500021 1.3333677 0 0 0 -1.273982 1.333968v21.331482a1.2500021 1.3333677 0 0 0 1.869934 1.158772l17.498149-10.665741a1.2500021 1.3333677 0 0 0 0 -2.317544l-17.497749-10.665741a1.2500021 1.3333677 0 0 0 -0.595992 -0.173996z" style="opacity:.2"/>
 <path d="m25.273696 21.000582a1.2500021 1.3333677 0 0 0 -1.273982 1.333968v21.331482a1.2500021 1.3333677 0 0 0 1.869934 1.158772l17.498149-10.665741a1.2500021 1.3333677 0 0 0 0 -2.317544l-17.497749-10.665741a1.2500021 1.3333677 0 0 0 -0.595992 -0.173996z" style="fill:#60e5bd"/>
 <path d="m4 54.222656v1c0 1.54 1.2504035 2.777344 2.8007812 2.777344h50.398438c1.549977 0 2.800781-1.237344 2.800781-2.777344v-1c0 1.54-1.250804 2.777344-2.800781 2.777344h-50.398438c-1.5503777 0-2.8007812-1.237344-2.8007812-2.777344z" style="opacity:.2"/>
 <path d="M 6.8007812 7 C 5.2496035 7 4 8.2383437 4 9.7773438 L 4 10.777344 C 4 9.2383437 5.2496035 8 6.8007812 8 L 57.199219 8 C 58.751196 8 60 9.2381438 60 10.777344 L 60 9.7773438 C 60 8.2381438 58.751196 7 57.199219 7 L 6.8007812 7 z" style="fill:#ffffff;opacity:.1"/>
</svg>

<svg xmlns="http://www.w3.org/2000/svg" width="64" height="64" version="1">
 <path style="fill:#316fb5" d="M 60,54.222 60,9.778 C 60,8.2388 58.751999,7 57.2,7 L 6.8000003,7 c -1.5512,0 -2.8,1.2388 -2.8,2.7778 l 0,44.444 c 0,1.54 1.2488,2.778 2.8,2.778 l 50.3999997,0 c 1.551199,0 2.8,-1.23888 2.8,-2.7778 z"/>
 <path style="opacity:0.2" d="m 25.273696,22.000245 a 1.2500021,1.3333677 0 0 0 -1.273982,1.333968 l 0,21.331482 a 1.2500021,1.3333677 0 0 0 1.869934,1.158772 L 43.367797,35.158726 a 1.2500021,1.3333677 0 0 0 0,-2.317544 L 25.870048,22.175441 a 1.2500021,1.3333677 0 0 0 -0.595992,-0.173996 z"/>
 <path style="fill:#60e5bd" d="m 25.273696,21.000582 a 1.2500021,1.3333677 0 0 0 -1.273982,1.333968 l 0,21.331482 a 1.2500021,1.3333677 0 0 0 1.869934,1.158772 L 43.367797,34.159063 a 1.2500021,1.3333677 0 0 0 0,-2.317544 L 25.870048,21.175778 a 1.2500021,1.3333677 0 0 0 -0.595992,-0.173996 z"/>
 <path style="opacity:0.2" d="M 4 54.222656 L 4 55.222656 C 4 56.762656 5.2504035 58 6.8007812 58 L 57.199219 58 C 58.749196 58 60 56.762656 60 55.222656 L 60 54.222656 C 60 55.762656 58.749196 57 57.199219 57 L 6.8007812 57 C 5.2504035 57 4 55.762656 4 54.222656 z"/>
 <path style="opacity:0.1;fill:#ffffff" d="M 6.8007812 7 C 5.2496035 7 4 8.2383437 4 9.7773438 L 4 10.777344 C 4 9.2383437 5.2496035 8 6.8007812 8 L 57.199219 8 C 58.751196 8 60 9.2381438 60 10.777344 L 60 9.7773438 C 60 8.2381438 58.751196 7 57.199219 7 L 6.8007812 7 z"/>
</svg>
